src/assets/icons/icons/folder-prerequisite.svg

<svg xmlns="http://www.w3.org/2000/svg" width="35" height="30" viewBox="0 0 35 30" fill="none">
  <circle cx="9" cy="21" r="4" fill="#EBAE28"/>
  <path d="M1 28V2C1 1.44772 1.44772 1 2 1H13.3676C13.7189 1 14.0444 1.1843 14.2251 1.4855L16.0599 4.54349C16.6021 5.4471 17.5786 6 18.6324 6H33C33.5523 6 34 6.44772 34 7V28C34 28.5523 33.5523 29 33 29H2C1.44772 29 1 28.5523 1 28Z" stroke="#929BAE" stroke-width="2"/>
</svg>

<svg xmlns="http://www.w3.org/2000/svg" width="35" height="30" viewBox="0 0 35 30">
  <path stroke-width="2" d="M1 28V2a1 1 0 011-1h11.368a1 1 0 01.857.486l1.835 3.057A3 3 0 0018.632 6H33a1 1 0 011 1v21a1 1 0 01-1 1H2a1 1 0 01-1-1z" opacity=".5"/>
  <circle cx="9" cy="21" r="4" fill="#EBAE28"/>
</svg>
